image/icons/touch.svg

<svg width="32" height="32" viewBox="0 0 32 32" fill="none" xmlns="http://www.w3.org/2000/svg">
<path d="M15.5003 1.33331C17.5225 1.33331 19.2503 2.03887 20.6836 3.44998C22.1169 4.86109 22.8336 6.57776 22.8336 8.59998C22.8336 9.75554 22.5836 10.8444 22.0836 11.8666C21.5836 12.8889 20.878 13.7555 19.9669 14.4666H18.8336V12.8C19.478 12.2889 19.9725 11.6666 20.3169 10.9333C20.6614 10.2 20.8336 9.4222 20.8336 8.59998C20.8336 7.13331 20.3114 5.88887 19.2669 4.86665C18.2225 3.84442 16.9669 3.33331 15.5003 3.33331C14.0336 3.33331 12.778 3.84442 11.7336 4.86665C10.6891 5.88887 10.1669 7.13331 10.1669 8.59998C10.1669 9.4222 10.3391 10.2 10.6836 10.9333C11.028 11.6666 11.5225 12.2889 12.1669 12.8V15.2C10.9225 14.5555 9.94471 13.6444 9.23359 12.4666C8.52248 11.2889 8.16693 9.99998 8.16693 8.59998C8.16693 6.57776 8.88359 4.86109 10.3169 3.44998C11.7503 2.03887 13.478 1.33331 15.5003 1.33331ZM14.2336 29.3333C13.8558 29.3333 13.5003 29.2611 13.1669 29.1166C12.8336 28.9722 12.5447 28.7778 12.3003 28.5333L5.43359 21.6666L7.30026 19.7333C7.61137 19.4222 7.96137 19.1833 8.35026 19.0166C8.73915 18.85 9.14471 18.8222 9.56693 18.9333L12.1669 19.5333V8.66665C12.1669 7.73331 12.4891 6.94442 13.1336 6.29998C13.778 5.65554 14.5669 5.33331 15.5003 5.33331C16.4336 5.33331 17.2225 5.65554 17.8669 6.29998C18.5114 6.94442 18.8336 7.73331 18.8336 8.66665V14.4H19.7003C19.8114 14.4 19.9114 14.4222 20.0003 14.4666C20.0891 14.5111 20.1891 14.5555 20.3003 14.6L25.2336 17C25.7669 17.2444 26.1614 17.6389 26.4169 18.1833C26.6725 18.7278 26.7447 19.2889 26.6336 19.8666L25.4336 27.1333C25.3225 27.7778 25.0114 28.3055 24.5003 28.7166C23.9891 29.1278 23.4114 29.3333 22.7669 29.3333H14.2336ZM13.9669 27.3333H23.3336L24.7669 19.0333L18.6669 16H16.8336V8.66665C16.8336 8.26665 16.7114 7.94442 16.4669 7.69998C16.2225 7.45554 15.9003 7.33331 15.5003 7.33331C15.1003 7.33331 14.778 7.45554 14.5336 7.69998C14.2891 7.94442 14.1669 8.26665 14.1669 8.66665V21.9666L9.03359 20.8666L8.26693 21.6333L13.9669 27.3333ZM23.3336 27.3333H13.9669H23.3336Z" fill="#7EB101"/>
</svg>

<svg width="32" height="32" fill="none" xmlns="http://www.w3.org/2000/svg">
  <path d="M15.5 1.333c2.023 0 3.75.706 5.184 2.117 1.433 1.411 2.15 3.128 2.15 5.15 0 1.156-.25 2.244-.75 3.267a7.368 7.368 0 0 1-2.117 2.6h-1.133V12.8a5.149 5.149 0 0 0 1.483-1.867 5.42 5.42 0 0 0 .517-2.333c0-1.467-.523-2.711-1.567-3.733-1.044-1.023-2.3-1.534-3.767-1.534-1.466 0-2.722.511-3.766 1.534-1.045 1.022-1.567 2.266-1.567 3.733 0 .822.172 1.6.517 2.333a5.149 5.149 0 0 0 1.483 1.867v2.4a7.25 7.25 0 0 1-2.933-2.733A7.342 7.342 0 0 1 8.167 8.6c0-2.022.717-3.739 2.15-5.15 1.433-1.411 3.161-2.117 5.183-2.117Zm-1.266 28c-.378 0-.734-.072-1.067-.216a2.766 2.766 0 0 1-.867-.584l-6.866-6.866L7.3 19.733c.311-.31.661-.55 1.05-.716a1.827 1.827 0 0 1 1.217-.084l2.6.6V8.667c0-.934.322-1.723.967-2.367.644-.644 1.433-.967 2.366-.967.934 0 1.723.323 2.367.967.644.644.967 1.433.967 2.367V14.4h.866c.111 0 .211.022.3.067.09.044.19.088.3.133l4.934 2.4c.533.244.927.639 1.183 1.183.255.545.328 1.106.217 1.684l-1.2 7.266a2.518 2.518 0 0 1-.934 1.584 2.692 2.692 0 0 1-1.733.616h-8.533Zm-.267-2h9.367l1.433-8.3-6.1-3.033h-1.833V8.667c0-.4-.123-.723-.367-.967s-.567-.367-.967-.367-.722.123-.966.367c-.245.244-.367.567-.367.967v13.3l-5.133-1.1-.767.766 5.7 5.7Zm9.367 0h-9.367 9.367Z" fill="#7EB101"/>
</svg>
